X:1
T:Wendel's Wedding
M:4/4
L:1/8
%Q:80
C:Tony Cuffe
N:Composed for Tony's niece
Z:Derek Hoy <sl@rox.u-net.com> scots-l 2002-1-7
K:G
g>f |\
e2 d<e B3 A | G>B A<G E2 gf | e2 d<e B>A B<d  | (e4 e2) z d |
e2 d<e B3 A | G>B A<G E2 GA | B<e d<B A<G B>A | {B}A(G3 G2) :|
|: GA |\
B2 AG e2 de/2f/2 | gf ed e2 de/2f/2 | gf ed B>A (3Bcd | (e4 e2) z d |
e2 d<e B3 A | G>B A<G E2 GA | B<e d<B A<G B>A | {B}A(G3 G2) :|]
